dist/svg/gear-search.svg

<!-- Generated by Trend Micro Style Portal -->
<svg version="1.1" xmlns="http://www.w3.org/2000/svg" width="16" height="16" viewBox="0 0 16 16">
  <title>gear-search</title>
  <path fill="rgb(34,34,34)" d="M13.5 12c1-1.3 1.5-2.8 1.5-4.5 0-4.1-3.4-7.5-7.5-7.5s-7.5 3.4-7.5 7.5 3.4 7.5 7.5 7.5c1.7 0 3.3-0.6 4.5-1.5l2.5 2.5 1.4-1.4-2.4-2.6zM7.5 14c-3.6 0-6.5-2.9-6.5-6.5s2.9-6.5 6.5-6.5 6.5 2.9 6.5 6.5-2.9 6.5-6.5 6.5zM10.4 5.6l0.6-0.9-0.7-0.7-0.9 0.6c-0.4-0.3-0.7-0.4-1.2-0.5l-0.2-1.1h-1l-0.2 1.1c-0.5 0.1-0.8 0.2-1.2 0.5l-0.9-0.6-0.7 0.7 0.6 0.9c-0.3 0.4-0.4 0.7-0.5 1.2l-1.1 0.2v1l1.1 0.2c0.1 0.5 0.2 0.8 0.5 1.2l-0.6 0.9 0.7 0.7 0.9-0.6c0.3 0.2 0.7 0.4 1.1 0.5l0.3 1.1h1l0.2-1.1c0.4-0.1 0.8-0.3 1.1-0.5l0.9 0.6 0.7-0.7-0.6-0.9c0.2-0.3 0.4-0.7 0.5-1.1l1.2-0.3v-1l-1.1-0.2c-0.1-0.5-0.2-0.8-0.5-1.2zM7.5 9c-0.8 0-1.5-0.7-1.5-1.5s0.7-1.5 1.5-1.5 1.5 0.7 1.5 1.5-0.7 1.5-1.5 1.5z"></path>
</svg>

<svg width="16" height="16" viewBox="0 0 16 16" fill="rgb(34, 34, 34)" xmlns="http://www.w3.org/2000/svg"><title>gear-search</title><path d="M13.5 12C14.5 10.7 15 9.2 15 7.5C15 3.4 11.6 0 7.5 0C3.4 0 0 3.4 0 7.5C0 11.6 3.4 15 7.5 15C9.2 15 10.8 14.4 12 13.5L14.5 16L15.9 14.6L13.5 12ZM7.5 14C3.9 14 1 11.1 1 7.5C1 3.9 3.9 1 7.5 1C11.1 1 14 3.9 14 7.5C14 11.1 11.1 14 7.5 14ZM10.4 5.6L11 4.7L10.3 4L9.4 4.6C9 4.3 8.7 4.2 8.2 4.1L8 3H7L6.8 4.1C6.3 4.2 6 4.3 5.6 4.6L4.7 4L4 4.7L4.6 5.6C4.3 6 4.2 6.3 4.1 6.8L3 7V8L4.1 8.2C4.2 8.7 4.3 9 4.6 9.4L4 10.3L4.7 11L5.6 10.4C5.9 10.6 6.3 10.8 6.7 10.9L7 12H8L8.2 10.9C8.6 10.8 9 10.6 9.3 10.4L10.2 11L10.9 10.3L10.3 9.4C10.5 9.1 10.7 8.7 10.8 8.3L12 8V7L10.9 6.8C10.8 6.3 10.7 6 10.4 5.6ZM7.5 9C6.7 9 6 8.3 6 7.5C6 6.7 6.7 6 7.5 6C8.3 6 9 6.7 9 7.5C9 8.3 8.3 9 7.5 9Z" fill="rgb(34, 34, 34)" fill-opacity="1.00"/></svg>
